X:1
T:Is It the Crowning Day?
T:Is It the Crowning Day?
T:Charles H. Marsh
T:Henry Ostrom, 1910
T:Public Domain Courtesy of the Cyber Hymnal™
C:Charles H. Marsh
Z:Public Domain
Z:Courtesy of the Cyber Hymnal™
%%score ( 1 2 ) ( 3 4 )
L:1/8
Q:1/4=115
M:6/4
K:C
V:1 treble 
V:2 treble 
V:3 bass 
V:4 bass 
V:1
 [CG][CA][CG] C2 [CD] | [CE]6 | [B,G]3 [B,D]3 | [CG]3 [CE]3 | [CF][CG][CA] [CE]2 [B,D] | [CG]6 | %6
w: 1.~Je- sus may come to-|day|Glad day,|glad day!|And I would see my|friend;|
w: 2.~I may go home to-|day|Glad day,|glad day!|Seem- eth I hear their|song;|
w: 3.~Why should I an- xious|be?|Glad day,|glad day!|Lights ap- pear on the|shore,|
w: 4.~Faith- ful I’ll be to-|day,|Glad day,|glad day!|And I will free- ly|tell|
 [FA][F^G][FA][Fc][FB][FA] | [EG]3- [EG]2 [CE] | [B,D][B,G][DB] [DB]2 [CA] | ([B,G]3 [FG]3) || %10
w: Dan- gers and trou- bles would|end * If|Je- sus would come to-|day. *|
w: Hail to the ra- di- ant|throng! * If|I should go home to-|day. *|
w: Storms will af- fright ne- ver-|more, * For|He is “at hand” to-|day. *|
w: Why I should love Him so|well, * For|He is my all to-|day. *|
"^Refrain" [Ec]3 [EA]3 | [FB]3 [FG]3 | [B,F][B,G][B,A] (Bc)[B,Dd] | ([CGe]3 [B,Gf]2) [FGd] | %14
w: ||||
w: Glad day,|glad day!|Is it the crown- * ing|day? * I’ll|
w: ||||
w: ||||
 [Ec][EB][Ec] [Ed]2 [Ec] | [FB]2 [FB] [FG]3 | [Fd][F^c][Fd] [Fe]2 [Fd] | [Ec]2 [Ec] [EG]3 | %18
w: ||||
w: live for to- day, nor|anx- ious be;|Je- sus, my Lord I|soon shall see.|
w: ||||
w: ||||
 [Ge]3 c3 | [Ac]3 [FA]3 | [EG][Ec][Ge] [Geg]2 [Fdf] | [Ece]6 |] %22
w: ||||
w: Glad day,|glad day!|Is it the crown- ing|day?|
w: ||||
w: ||||
V:2
 x3 C2 x | x6 | x6 | x6 | x6 | x6 | x6 | x6 | x6 | x6 || x6 | x6 | x3 [B,E]2 x | x6 | x6 | x6 | %16
 x6 | x6 | x3 (G2 ^G) | x6 | x6 | x6 |] %22
V:3
 [C,E,][C,F,][C,E,] [C,E,]2 [C,F,] | [C,G,]6 | [D,G,]3 [F,G,]3 | [E,G,]3 [C,G,]3 | %4
 [F,A,][F,B,][F,A,] G,2 [F,G,] | ([E,G,]3 [E,C]3) | [F,C][F,B,][F,C][F,A,][F,B,][F,C] | %7
 [C,C]3- [C,C]2 [C,G,] | [D,G,][D,G,][D,G,] (G,E,)[D,^F,] | ([G,,G,]3 [B,,G,]3) || %10
 [C,G,]3 [C,G,]3 | [D,G,]3 [G,B,]3 | [D,G,][E,G,][F,G,] G,2 [F,G,] | ([E,G,]3 [D,G,]2) [B,,G,] | %14
 [C,G,][C,G,][C,G,] [C,G,]2 [C,G,] | [D,G,]2 [D,G,] [G,B,]3 | %16
 [G,B,][G,^A,][G,B,] [G,B,]2 (B,/G,/) | [C,G,]2 [C,G,] [C,C]3 | [C,C]3 [E,C]3 | [F,C]3 [F,C]3 | %20
 [G,C][G,C][G,C] (CA,)[G,B,] | [C,C]6 |] %22
V:4
 x6 | x6 | x6 | x6 | x3 G,2 x | x6 | x6 | x6 | x3 D,2 x | x6 || x6 | x6 | x3 G,2 x | x6 | x6 | x6 | %16
 x5 G, | x6 | x6 | x6 | x3 G,2 x | x6 |] %22

